svg/furkot/freepik/beach.svg

<svg viewBox="0 0 512 512" xmlns="http://www.w3.org/2000/svg"><path d="m306.494 54.567c-.154-.112-.306-.217-.461-.328.237.172.499.364.768.56-.101-.075-.201-.154-.307-.232z"/><path d="m512.237 227.561c0-21.642-3.419-43.249-10.134-63.823-6.759-20.71-16.819-40.284-29.489-57.993-13.188-18.432-29.155-34.83-46.961-48.831-17.706-13.92-37.26-25.444-57.945-34.344-21.045-9.055-43.235-15.389-65.856-18.985-23.24-3.695-46.94-4.524-70.384-2.535-23.011 1.951-45.793 6.662-67.64 14.161-21.366 7.336-41.82 17.34-60.635 29.853-18.886 12.561-36.145 27.635-50.918 44.856-14.331 16.706-26.274 35.467-35.029 55.674-8.576 19.796-14.041 40.905-16.084 62.382-.755 7.957-1.033 15.947-.866 23.937l.022.752 67.569 22.219 62.782-20.721 62.781 20.721 44.356-14.64v168.298h36.873v-168.291l44.33 14.632 62.783-20.721 62.787 20.721 67.606-22.334-.007-.636c.028-1.45.059-2.898.059-4.352zm-392.017-140.449c-8.199 10.496-15.424 21.583-21.484 33.452-11.875 23.263-19.587 48.676-22.895 74.583-.8 6.262-1.333 12.53-1.714 18.83l-.107 1.835c-.032.603-.078 1.262-.081 1.749l-.077 3.148-.013.566-5.962 1.968-35.299-11.652c6.626-71.37 57.239-132.051 128.071-161.291-4.266 2.746-8.413 5.65-12.426 8.758-5.066 4.189-10.094 8.408-14.707 13.103-4.677 4.762-9.194 9.689-13.306 14.951zm67.895 134.371-55.548-18.334c.415-4.829 1.045-9.628 1.673-14.431l.393-2.727c1.799-13.104 4.959-26.211 8.984-38.8 4.001-12.514 9.078-24.561 15.062-36.248 1.674-3.27 3.524-6.475 5.441-9.609-.046.073-.012.015.216-.357-.071.118-.143.239-.216.357.097-.152.548-.875.438-.708 1.999-3.168 3.999-6.319 6.077-9.438 1.324-1.83 2.645-3.663 3.968-5.495.919-1.167 1.832-2.323 2.737-3.469 2.968-4.015 6.446-7.784 9.909-11.375 3.448-3.577 7.089-6.966 10.895-10.158 7.336-6.149 15.278-11.536 23.731-16.026-19.687 35.78-33.076 101.356-33.76 176.818zm136.243-.005c-.684-75.46-14.073-141.034-33.761-176.813 4.862 2.582 10.089 5.733 15.436 9.575-1.062-.772-1.564-1.141.461.328 4.229 3.08 2.129 1.557.309.233 5 3.662 9.77 7.632 14.257 11.909 2.482 2.366 4.879 4.823 7.176 7.367 2.374 2.624 4.792 5.302 6.896 8.147.904 1.146 1.819 2.302 2.738 3.469 1.323 1.832 2.644 3.665 3.968 5.495 7.227 10.845 13.908 22.168 18.873 34.254 2.503 6.096 4.934 12.177 7.048 18.423 2.104 6.211 3.905 12.526 5.462 18.896 1.867 7.651 3.547 15.427 4.619 23.231l.393 2.727c.628 4.803 1.258 9.599 1.673 14.428zm120.22 1.766-5.954-1.965-.013-.569-.077-3.148c-.003-.487-.049-1.146-.082-1.749l-.106-1.835c-1.601-26.491-7.012-52.633-17.125-77.223-10.01-24.343-24.456-46.82-43.111-65.434-4.377-4.368-9.11-8.324-13.873-12.261-4.012-3.108-8.16-6.012-12.426-8.758 70.834 29.241 121.447 89.92 128.072 161.291z"/><path d="m378.686 438.821h-333.086l-29.365 29.364v44.302h42.14v-31.526h297.988v31.526h42.139v-33.889l97.749-97.747-29.796-29.797z"/></svg>

<svg xmlns="http://www.w3.org/2000/svg" viewBox="0 0 512 512"><path d="M306.494 54.567C306.34 54.455 306.188 54.35 306.033 54.239 306.27 54.411 306.532 54.603 306.801 54.799 306.7 54.724 306.6 54.645 306.494 54.567Z"/><path d="M512.237 227.561C512.237 205.919 508.818 184.312 502.103 163.738 495.344 143.028 485.284 123.454 472.614 105.745 459.426 87.313 443.459 70.915 425.653 56.914 407.947 42.994 388.393 31.47 367.708 22.57 346.663 13.515 324.473 7.181 301.852 3.585 278.612-0.11 254.912-0.939 231.468 1.05 208.457 3.001 185.675 7.712 163.828 15.211 142.462 22.547 122.008 32.551 103.193 45.064 84.307 57.625 67.048 72.699 52.275 89.92 37.944 106.626 26.001 125.387 17.246 145.594 8.67 165.39 3.205 186.499 1.162 207.976 0.407 215.933 0.129 223.923 0.296 231.913L0.318 232.665 67.887 254.884 130.669 234.163 193.45 254.884 237.806 240.244V408.542H274.679V240.251L319.009 254.883 381.792 234.162 444.579 254.883 512.185 232.549 512.178 231.913C512.206 230.463 512.237 229.015 512.237 227.561ZM120.22 87.112C112.021 97.608 104.796 108.695 98.736 120.564 86.861 143.827 79.149 169.24 75.841 195.147 75.041 201.409 74.508 207.677 74.127 213.977L74.02 215.812C73.988 216.415 73.942 217.074 73.939 217.561L73.862 220.709 73.849 221.275 67.887 223.243 32.588 211.591C39.214 140.221 89.827 79.54 160.659 50.3 156.393 53.046 152.246 55.95 148.233 59.058 143.167 63.247 138.139 67.466 133.526 72.161 128.849 76.923 124.332 81.85 120.22 87.112ZM188.115 221.483L132.567 203.149C132.982 198.32 133.612 193.521 134.24 188.718L134.633 185.991C136.432 172.887 139.592 159.78 143.617 147.191 147.618 134.677 152.695 122.63 158.679 110.943 160.353 107.673 162.203 104.468 164.12 101.334 164.074 101.407 164.108 101.349 164.336 100.977 164.265 101.095 164.193 101.216 164.12 101.334 164.217 101.182 164.668 100.459 164.558 100.626 166.557 97.458 168.557 94.307 170.635 91.188 171.959 89.358 173.28 87.525 174.603 85.693 175.522 84.526 176.435 83.37 177.34 82.224 180.308 78.209 183.786 74.44 187.249 70.849 190.697 67.272 194.338 63.883 198.144 60.691 205.48 54.542 213.422 49.155 221.875 44.665 202.188 80.445 188.799 146.021 188.115 221.483ZM324.358 221.478C323.674 146.018 310.285 80.444 290.597 44.665 295.459 47.247 300.686 50.398 306.033 54.24 304.971 53.468 304.469 53.099 306.494 54.568 310.723 57.648 308.623 56.125 306.803 54.801 311.803 58.463 316.573 62.433 321.06 66.71 323.542 69.076 325.939 71.533 328.236 74.077 330.61 76.701 333.028 79.379 335.132 82.224 336.036 83.37 336.951 84.526 337.87 85.693 339.193 87.525 340.514 89.358 341.838 91.188 349.065 102.033 355.746 113.356 360.711 125.442 363.214 131.538 365.645 137.619 367.759 143.865 369.863 150.076 371.664 156.391 373.221 162.761 375.088 170.412 376.768 178.188 377.84 185.992L378.233 188.719C378.861 193.522 379.491 198.318 379.906 203.147L324.358 221.478ZM444.578 223.244L438.624 221.279 438.611 220.71 438.534 217.562C438.531 217.075 438.485 216.416 438.452 215.813L438.346 213.978C436.745 187.487 431.334 161.345 421.221 136.755 411.211 112.412 396.765 89.935 378.11 71.321 373.733 66.953 369 62.997 364.237 59.06 360.225 55.952 356.077 53.048 351.811 50.302 422.645 79.543 473.258 140.222 479.883 211.593L444.578 223.244Z"/><path d="M378.686 438.821L45.6 438.821 16.235 468.185 16.235 512.487 58.375 512.487 58.375 480.961 356.363 480.961 356.363 512.487 398.502 512.487 398.502 478.598 496.251 380.851 466.455 351.054Z"/></svg>
